!!!OTL: Graf und Nonne (Die Nonne)
!!!OTL-incipit:Ich stand auf hohem Berge
!!!ARE: Europa, Mitteleuropa, Deutschland (BRD), Nordrhein - Westfalen, Siegkreis
!!!YOR: 8, S. 294
!!    1934 aufgezeichnet (vor)
!!!SCT: Q0155Z.
!!!TXL: @@DE
!!!YEM: Copyright 1995, estate of Helmut Schaffrath.
**kern	**text
*ICvox	*
*M3/4	*
*k[f#]	*
*G:	*
{4dd	Jch
=1	=1
2dd	stand
4dd	auf
=2	=2
2dd	ho-
4dd	-hem
=3	=3
2.b	Ber-
=4	=4
2b	-ge
8r}	.
{8b	und
=5	=5
4cc	schau-
4cc	-te
4cc	hin-
=6	=6
4cc	-ab
4dd	in
4ee	das
=7	=7
[2.dd	Tal
=8	=8
2dd]	.
8r}	.
{8dd	ein
=9	=9
(4dd	Schifſ-
4gg)	.
4gg	-lein
=10	=10
(4gg	sah
4ff#)	.
4ee	ich
=11	=11
(2.ee	schwim-
=12	=12
2.dd	.
=13	=13
2cc	.
4dd)	.
=14	=14
2b}	-men,
{4dd	es
=15	=15
4dd	sas-
4ee	-sen
4dd	drei
=16	=16
4cc	Rit-
4a	-ter
4dd	da-
=17	=17
2b}	-rin.
==	==
!!!AGN: Ballade, Standesunterschied, vergebliche Werbung, Liebe, Klage
!! Stark "zersungene" Fassung.
!!!ONB: ESAC (Essen Associative Code) Database: BALLADE
!!!AMT: simple triple
!!!AIN: vox
!!!EED: Helmut Schaffrath
!!!EEV: 1.0
!!!source: Deutsche Volkslieder mit ihren Melodien. Herausgegeben vom Deutschen Volksliedarchiv. Achter Teil. Freiburg/Breisgau 1988.
!!!page: 294
!!!ENC: Anna Maria Matuszewska
!!!EEV: 2025/03/10
*-	*-
